X: 1626
T: The Fair Maidens
M:C|
L:1/8
B:O'Neills 1626
N:"collected by F. O'Neill"
Z:Transcribed by Nick Terhorst, nickte@microsoft.com
K:G
D2|GDGA BGBd|gfed cBAG| ABcd ecAG|FGAF D2 DF|
|GDGA BGBd|gfed cBAG|ABcd edAF|G2~GFG2:|
|:FG|ADFD ADFD|cABG A2 GA| BDGD BDGD|dBcA B2 A2|
|GDGA BGBd|gfed cBAG|ABcd edAF|G2~GFG2:|


